X: 40187
T: Timmy Clifford's
R: jig
M: 6/8
K: Dmajor
DFA B2A|Adc dAF|DFA Bgf|edc dAF|
DFA B2A|Adc def|~a3 ~f3|1 edc dAF:|2 edc dfa||
|:~b3 ~a3|fef dfa|~b3 ~a3|fed efa|
~b3 ~a3|fef def|gfe fed|1 edc dfa:|2 edc d3||

